X:2155
T:Gnglt
M:4/4
O:Sweden
R:Gnglt
Z:Richard Robinson 
%%TUNEURL: http://www.leeds.ac.uk/music/Info/RRTuneBk/gettune/00000bd2.html
%%ID:00000bd2
K:G
D2|\
B2cB A2BA| G2A2 B2c2| d2de c2cd| B6 ::
Bc|\
d2d2 d2ef| g2 d2 dBd2| g2g2 f2f2| e3c cBc2|\
d3c A2F2| G6:|
